X: 39724
T: Teviot Bridge
R: jig
M: 6/8
K: Amajor
|:f|ecA EAA|FAA E2E|EEE E2c|d2c B2f|
ecA EAA|FAA E2c|def ecA|BBB Ae:|
|:f|ecA ABA|fff fga|ecA AcA|BEE Eef|
ecA BAA|agf edc|def ecA|BBB Ae:|

